!!!!SEGMENT: pl-wumfc--n28541--004_moniuszko-stanislaw--verbum-nobile-3-piosenka-bartlomieja.krn
!!!cenid: 18xx:4210
!!!COM: Moniuszko, Stanisław
!!!COM-rismID: pe30008351
!!!CDT: 1819/05/05-1872/06/04
!!!CNT: Polish
!!!OPR: Verbum nobile
!!!OTL: 3. Piosenka Bartłomieja
!!!OMV: 004
!!!PDT:
!!!AGN:
!!!SMS-siglum: PL-Wumfc
!!!SMS-shelfmark: N28541
!!!SMS-variant:
!!!SMS-altvar:
!!!SMS-shelfwork: 004-004 M
!!!NIFC-rismSourceID: 1001152972
!!!NIFC-rismChildID: 1001152972
!!!NIFC-islandoraID: pl-wumfc:3225
!!!URL-pdf-islandora: https://repozytorium.nifc.pl/islandora/object/pl-wumfc:3225/datastream/PDF/view
!!!URL-scan: https://polish.musicsources.pl/pl/lokalizacje/galeria/druki-muzyczne/12012/15 @EN{Scan on Polish Music Sources Website} @PL{Skany w portalu Dziedzictwo Muzyki Polskiej w otwartym dostępie}
!!!IIIF:
!!!ONB-nifc: Skany 0015-0019
!!!AIN: 1 barit 1 piano
!!!key: G
!!!OMD: Allegretto.
**kern	**kern	**dynam	**kern	**text
*part2	*part2	*part2	*part1	*part1
*staff3	*staff2	*	*staff1	*staff1
*IGacmp	*IGacmp	*	*IGsolo	*
*ICklav	*ICklav	*	*ICvox	*
*Ipiano	*Ipiano	*	*Ibarit	*
*I"Piano.	*I"Piano.	*	*I"[Bartłomiej]	*
*I'	*I'	*	*I'	*
*clefF4	*clefG2	*	*clefG2	*
*k[f#]	*k[f#]	*	*k[f#]	*
*G:	*G:	*	*G:	*
*M3/8	*M3/8	*	*M3/8	*
=1	=1	=1	=1	=1
8GGG/ 8DD 8GG	8g'\ 8b 8gg	sf	4.r	.
(16B\LL	(16b\LL	p	.	.
16c\J	16cc\J	.	.	.
8d\J)	8dd\J)	.	.	.
=2	=2	=2	=2	=2
(16G\LL	(16g/LL	.	4.r	.
16A\J	16a/J	.	.	.
8B\J)	8b/J)	.	.	.
(16G\LL	(16g/LL	.	.	.
16E\JJ	16e/JJ	.	.	.
=3	=3	=3	=3	=3
8D\)	8d/)	.	4.r	.
8C'\L 8c	8ee'\L 8aa	f	.	.
8BB'\J 8B	8ee'\J 8gg#X 8bb	.	.	.
=4	=4	=4	=4	=4
8AA\ 8A	8ee'\ 8aa 8ccc	.	4.r	.
8r	8r	.	.	.
8D\	8A/ 8d 8f#	p	.	.
=5	=5	=5	=5	=5
8GG'\L 8G	8B'/L 8g	.	8g/	Ro-
8AA'\ 8G	8c'/ 8g	.	8g/	-dzic
8BB'\J 8G	8d'/J 8g	.	8g/	po-
!!linebreak:original
=6	=6	=6	=6	=6
*	*^	*	*	*
8C'\L 8G	(16g/LL	8e\L	.	4g/	-wia-
.	16a/	.	.	.	.
8BB'\ 8G	16g/	8d\	.	.	.
.	16f#/J	.	.	.	.
8AA'\J 8G	8g/J)	8c\J	.	8g/	-da:
*	*v	*v	*	*	*
=7	=7	=7	=7	=7
8GG'\L 8G	8B'/L 8g	.	8g/	słu-
8AA'\ 8G	8c'/ 8g	.	8g/	-chaj-
8BB'\J 8G	8d'/J 8g	.	8g/	-no
=8	=8	=8	=8	=8
*	*^	*	*	*
8C'\L 8G	(16g/LL	8e\L	.	4g/	wa-
.	16a/	.	.	.	.
8BB'\ 8G	16g/	8d\	.	.	.
.	16f#/J	.	.	.	.
8AA'\J 8G	8g/J)	8c\J	.	8g/	-sze!
*	*v	*v	*	*	*
=9	=9	=9	=9	=9
.	(8qB/	.	.	.
8GG'\L 8G	8dd/L)	.	8dd\	trza
8BB'\ 8G	8d'/ 8dd	.	8dd\	moś-
8GG'\J 8B	8g'/J 8dd	.	8dd\	-ci-
=10	=10	=10	=10	=10
8C'\L	(4e^/	.	4e/	-dzie-
8E'\ 8G	.	.	.	.
8AA'\J 8E 8A	16f#/LL	.	16f#/LL	-ju
.	16g/JJ)	.	16g/JJ	.
!!linebreak:original
=11	=11	=11	=11	=11
8D'\L 8F#	8c'/L 8a	.	8a/	je-
8D'\ 8E	8c'/ 8g	.	8g/	-chać
8D'\J 8F#	8c'/J 8a	.	8a/	da-
=12	=12	=12	=12	=12
*	*^	*	*	*
8G\L	(4b/	8B\L	.	4b/	-le-
8D\	.	8B\ 8d	.	.	.
8G\J	8g/)	8B\J	.	8g/	-ko,
*	*v	*v	*	*	*
=13	=13	=13	=13	=13
8BB'\L 8F#	8d'/L 8b	.	8b\	zły
8C#X'\ 8F#	8e'/ 8b	.	8b\	są-
8D'\J 8B	8f#'/J 8b	.	8b\	-siad
=14	=14	=14	=14	=14
*	*^	*	*	*
8E'\L 8B	4b/	(16g\LL	.	4b\	pra-
.	.	16a\	.	.	.
8D'\ 8B	.	16g\	.	.	.
.	.	16f#\J	.	.	.
8C#X'\J 8B	8b/	8e\J)	.	8b\	-gnie
*	*v	*v	*	*	*
=15	=15	=15	=15	=15
8BB'\L 8F#	8d'/L 8b	.	8b\	dmuch-
8C#X'\ 8F#	8e'/ 8b	.	8b\	-nąć
8D'\J 8B	8f#'/J 8b	.	8b\	mi
!!pagebreak:original
=16	=16	=16	=16	=16
*	*^	*	*	*
8E'\L 8B	4b/	(16g\LL	.	4b\	w ka-
.	.	16a\	.	.	.
8D'\ 8B	.	16g\	.	.	.
.	.	16f#\J	.	.	.
8C#X'\J 8B	8b/	8e\J)	.	8b\	-szę,
*	*v	*v	*	*	*
=17	=17	=17	=17	=17
8BB'\L 8G#X	8fn'/L 8dd	.	8dd\	kop-
8BB'\ 8G#	8f'/ 8cc	.	8cc\	-ce
8BB'\J 8G#	8f'/J 8b	.	8b\	gra-
=18	=18	=18	=18	=18
.	8qb/	.	.	.
8C'\L 8A	8e'/L 8a	.	8a/L	-nicz-
8C'\ 8E	8e'/ 8g#X	.	8g#X/J	.
8C'\J 8A	8e'/J 8a	.	8a/	-ne
=19	=19	=19	=19	=19
8C#X'\L 8G	8e'/L 8b-X	.	8b-X/	sy-
8C#'\ 8A	8e'/ 8a	.	8a/	-pie
8C#'\J 8B-X	8e'/J 8g	.	8g/	nad
=20	=20	=20	=20	=20
8D\L 8A	(>4d/ 4f#	.	8f#/	rze-
8F#\	.	.	8d/	-ką.
8A\J	8a/)	.	8r	.
!!linebreak:original
=21	=21	=21	=21	=21
8qA/	8qa/	f	.	.
8d'\L	8dd'/L	.	4.r	.
8A'\	8a'/	>	.	.
8B-X'\J	8b-X'/J	.	.	.
=22	=22	=22	=22	=22
8G'\L	8g'/L	.	4.r	.
8A'\	8a'/	.	.	.
8F#'\J	8f#'/J	.	.	.
=23	=23	=23	=23	=23
8G'\L	8g'/L	.	4.r	.
8D'\	8d'/	]	.	.
8qFn/	8qfn/	.	.	.
8E-X^\J	8e-X^/J	.	.	.
=24	=24	=24	=24	=24
4.D;\	4.d;/	.	4.r;	.
=25	=25	=25	=25	=25
8G'\L	8g'\L 8b 8gg	pp	8g/	Pod-
8A'\	8g'\ 8cc 8ff#	.	8g/	-ko-
8B'\J	8g'\J 8dd 8ffn	.	8g/	-mo-
=26	=26	=26	=26	=26
*	*^	*	*	*
8c'\L	(16ee/LL	8g\L	.	4g/	-rze-
.	16ffn/	.	.	.	.
8d'\	16ee/	8g\	.	.	.
.	16dd/J	.	.	.	.
8e'\J	8cc#X/J)	8g\J	.	8g/	-mu
*	*v	*v	*	*	*
!!linebreak:original
=27	=27	=27	=27	=27
8fn'\L	8g'/L 8dd	.	8g/	wieź
8e'\	8g'/ 8cc#X	.	8g/	a-
8e-X'\J	8g'/J 8ccn	.	8g/	-kta,
=28	=28	=28	=28	=28
*	*^	*	*	*
8d'\L	(16b/LL	8g\L	.	4g/	pla-
.	16cc/	.	.	.	.
8c#X'\	16b/	8g\	.	.	.
.	16b-X/J	.	.	.	.
8cn'\J	8a/J)	8g\J	.	8g/	-ny,
*	*v	*v	*	*	*
=29	=29	=29	=29	=29
8BB'\L 8B	8d'/L 8dd	.	8dd\	on
8B'\ 8d	8g'/ 8dd	.	8dd\	wié
8BB'\J 8G	8d'/J 8dd	.	8dd\	co
=30	=30	=30	=30	=30
*^	*	*	*	*
4C/	8C\L	4e^/	.	4e/	po-
.	8E\ 8G	.	.	.	.
8rcyy	8AA\J	16f#/LL	.	16f#/LL	-cząć,
.	.	16g/JJ	.	16g/JJ	.
*v	*v	*	*	*	*
=31	=31	=31	=31	=31
8D\L 8F#	8c/L 8a	.	8a/	wy-
8D\ 8E	8c/ 8g	.	8g/	-rwie
8D\J 8F#	8c/J 8a	.	8a/	z na-
!!linebreak:original
=32	=32	=32	=32	=32
8G\	(8B/L 8b	.	4b/	-paś-
16D'/LL	8d/)	.	.	.
16C'/	.	.	.	.
16BB'/	8d'/J	.	8g/	-ci,
16AA'/JJ	.	.	.	.
=33	=33	=33	=33	=33
8GG'\L 8G	8B'/L 8g	.	8g/	je-
8BB'\ 8G	8d'/ 8g	.	8g/	-no
8GG'\J 8G	8B'/J 8g	.	8g/	niech
=34	=34	=34	=34	=34
*	*^	*	*	*
8AA'\L 8G	(16g^/LL	4.c\ 4.e-X	.	4g/	a-
.	16a/	.	.	.	.
8C'\ 8G	16g/	.	.	.	.
.	16f#/J	.	.	.	.
8AA'\J 8G	8g/J)	.	.	8g/	-mor
*	*v	*v	*	*	*
=35	=35	=35	=35	=35
8AA#X'\L 8G	8c#X'/L 8g	.	8g/	z fi-
8C#X'\ 8G	8en'/ 8g	.	8g/	-giel-
8AA#'\J 8G	8c#'/J 8g	.	8g/	-ków
=36	=36	=36	=36	=36
*	*^	*	*	*
!	!	!LO:N:vis=4.:xstem	!	!	!
8BB'\L 8G	(16g^/LL	4.d\ 4.fn	.	4g/	zna-
.	16a/	.	.	.	.
8D'\ 8G	16g/	.	.	.	.
.	16f#X/J	.	.	.	.
8BB'\J 8G	8g/J)	.	.	8g/	-ny
*	*v	*v	*	*	*
!!pagebreak:original
=37	=37	=37	=37	=37
8C'\L 8G	8e'/L 8cc	.	8cc\	w tej
8E'\ 8c	8g'/ 8cc	.	8cc\	dro-
8C'\J 8c	8e'/J 8cc	.	8cc\	-dze
=38	=38	=38	=38	=38
*	*^	*	*	*
8D'\L 8c	(16cc^/LL	4.fn\ 4.a-X	.	4cc\	móz-
.	16dd/	.	.	.	.
8Fn'\ 8c	16cc/	.	.	.	.
.	16b/J	.	.	.	.
8D'\J 8c	8cc/J)	.	.	8cc\	-gu
=39	=39	=39	=39	=39	=39
8D#X'\L 8c	8cc'/L	8f#X\L	.	8cc\	nie
8F#X'\ 8c	8cc'/	8a\	.	8cc\	skrę-
8D#'\J 8c	8cc'/J	8f#\J	.	8cc\	-ci
=40	=40	=40	=40	=40	=40
8E'\L 8c	(16cc^/LL	4.g\ 4.b-X	.	4cc\	waś-
.	16dd/	.	.	.	.
8G'\ 8c	16cc/	.	.	.	.
.	16bn/J	.	.	.	.
8E'\J 8c	8cc/J)	.	.	8cc\	-ci;
*	*v	*v	*	*	*
=41	=41	=41	=41	=41
8Fn'\L 8c	8a'\L 8ffn	<	8cc\	jedź!
8G'\ 8c	8b-X'\ 8ff	.	8b-X\	Bar-
8A'\J 8fn	8cc'\J 8ff	.	8cc\	-tosz
!!linebreak:original
=42	=42	=42	=42	=42
*	*^	*	*	*
8B-X'\L 8fn	4ffn^/	(16dd\LL	.	8dd\	z to-
.	.	16ee\	.	.	.
8A'\ 8f	.	16dd\	.	8fn/	-bą."
.	.	16cc\J	.	.	.
8G'\J 8f	8ff/	8b-X\J)	.	8r	.
*	*v	*v	*	*	*
=43	=43	=43	=43	=43
8Fn'\L 8fn	8a'\L 8ffn	.	4.r	.
8G'\ 8f	8b-X'\ 8ff	.	.	.
8A'\J 8f	8cc'\J 8ff	.	.	.
=44	=44	=44	=44	=44
*	*^	*	*	*
8B-X'\L 8fn	4ffn/	(16dd\LL	.	8fn/	Ot
.	.	16ee\	.	.	.
8A'\ 8f	.	16dd\	.	8f/	dwa
.	.	16cc\J	.	.	.
8G'\J 8f	8ff/	8b-X\J)	.	8f/	mie-
*	*v	*v	*	*	*
=45	=45	=45	=45	=45
8Fn\ 8c	8a\ 8ffn	.	4fn/	-sią-
!	!	!LO:HP:t=cre_scen_do:ext=ud:problem:dynamics with extention lines	!	!
8B-X'\L 8d	8fn'\L 8b-X 8ff	<	.	.
8F'\J 8c	8f'\J 8b- 8ff	.	8f/	-ce
=46	=46	=46	=46	=46
8B-X'\L 8d	8fn'\L 8b-X 8ffn	.	8fn/	ja-
8Fn'\ 8c	8f'\ 8a 8ff	.	8f/	-ke-
8B-'\J 8d	8f'\J 8b- 8ff	.	8f/	-śmy
!!linebreak:original
=47	=47	=47	=47	=47
8Fn\ 8c	8fn\ 8a 8ffn	.	4fn/	swoj-
8D'\L 8d	8b-X'\L 8ff 8bb-X	.	.	.
8C'\J 8c	8cc'\J 8ff 8aa	.	8f/	-ski
=48	=48	=48	=48	=48
8BB-X'\L 8B-X	8dd'\L 8ffn 8ddd	.	8fn/	rzu-
8AA'\ 8A	8cc'\ 8ff 8ccc	[	8f/	-ci-
8GG'\J 8G	8ff'\J 8bb-X 8fffn	.	8f/	-li
=49	=49	=49	=49	=49
8FFn/ 8C 8Fn	8ffn\ 8aa 8fffn	sf	4cc\	dach.
8r	8r	.	.	.
8r;	8r;	.	8r;	.
=50	=50	=50	=50	=50
.	(16qqcc/LL	p	.	.
.	16qqdd/JJ	.	.	.
8Fn'\L 8c	8a'\L) 8ee-X	.	8cc\	Sta-
8F'\ 8d	8a'\ 8dd	.	8a/	-ry
8F#X'\J 8e-X	8a'\J 8cc	.	8cc\	się
=51	=51	=51	=51	=51
.	8qcc/	.	.	.
*	*^	*	*	*
(4G\ 4d	(16b/LL	4g\	.	8.b\L	sro-
.	16a/	.	.	.	.
.	16b/	.	.	.	.
.	16cc/J	.	.	16cc\Jk	.
8B\)	8dd/J)	8g\	.	8dd\	-ma
*	*v	*v	*	*	*
!!linebreak:original
=52	=52	=52	=52	=52
8D'\L 8A	8d'/L 8f#	.	8f#/	w dłu-
8D'\ 8A	8c#X'/ 8f#	.	8f#/	-giej
8D#X'\J 8A	8cn'/J 8f#	.	8f#/	roz-
=53	=53	=53	=53	=53
.	8qqa/	.	.	.
*	*^	*	*	*
((4E\ 4G	(16g/LL	4B\	.	8.g/L	-łą-
.	16f#/	.	.	.	.
.	16g/	.	.	.	.
.	16a/J	.	.	16a/Jk	.
8G\)) 8B	8b/J)	8e\	.	8b/	-ce,
*	*v	*v	*	*	*
=54	=54	=54	=54	=54
!	!	!	!LO:TX:a:i:t=lento	!
8A'\L	8e'/L 8cc	.	8cc\	oj!
8B'\	8e'/ 8b	.	8b\	co
8c'\J	8e'/J 8a	.	8a/	to
=55	=55	=55	=55	=55
*	*^	*	*	*
(4d\	(4g#X/	[4fn\	.	4g#X/	bę-
16D\)	16a/)	16f\]	.	16a/	-dzie!
16r;	16raa;	16rcyy	.	16r;	.
*	*v	*v	*	*	*
=56	=56	=56	=56	=56
!	!	!	!LO:TX:a:B:t=Tempo I.	!
8D\ 8A	8d/ 8f#X 8dd	sf	8dd^\	po-
8r	8r	.	16cc\LL	-my-
.	.	.	16b\JJ	.
8DD/ 8D	8A/ 8c 8f#	p	8a/	-śleć
=57	=57	=57	=57	=57
4GG;/ 4D	4B;/ 4g	.	4g;/	strach!
8r	8r	.	8r	.
!!pagebreak:original
=58	=58	=58	=58	=58
8g'\	8gg'\	p	4.r	.
(16B\LL	(16b\LL	.	.	.
16c\J	16cc\J	.	.	.
8d\J)	8dd\J)	.	.	.
=59	=59	=59	=59	=59
(16G\LL	(16g/LL	.	4.r	.
16A\J	16a/J	.	.	.
8B\J)	8b/J)	.	.	.
(16G\LL	(16g/LL	.	.	.
16E\JJ	16e/JJ	.	.	.
=60	=60	=60	=60	=60
8D\)	8d/)	.	4.r	.
8C'\L 8c	8ee'\L 8aa	f	.	.
8BB'\J 8B	8ee'\J 8gg#X 8bb	.	.	.
=61	=61	=61	=61	=61
8AA\ 8A	8ee'\ 8aa 8ccc	.	4.r	.
8r	8r	.	.	.
8D\	8A/ 8d 8f#	p	.	.
=62	=62	=62	=62	=62
8GG'\L 8G	8B'/L 8g	.	8g/	We-
8AA'\ 8G	8c'/ 8g	.	8g/	-dle
8BB'\J 8G	8d'/J 8g	.	8g/	zle-
!!linebreak:original
=63	=63	=63	=63	=63
*	*^	*	*	*
8C'\L 8G	(16g/LL	8e\L	.	4g/	-ce-
.	16a/	.	.	.	.
8BB'\ 8G	16g/	8d\	.	.	.
.	16f#/J	.	.	.	.
8AA'\J 8G	8g/J)	8c\J	.	8g/	-nia
*	*v	*v	*	*	*
=64	=64	=64	=64	=64
8GG'\L 8G	8B'/L 8g	.	8g/	we
8AA'\ 8G	8c'/ 8g	.	8g/	wła-
8BB'\J 8G	8d'/J 8g	.	8g/	-sne
=65	=65	=65	=65	=65
*	*^	*	*	*
8C'\L 8G	(16g/LL	8e\L	.	4g/	rę-
.	16a/	.	.	.	.
8BB'\ 8G	16g/	8d\	.	.	.
.	16f#/J	.	.	.	.
8AA'\J 8G	8g/J)	8c\J	.	8g/	-ce
*	*v	*v	*	*	*
=66	=66	=66	=66	=66
.	(8qB/	.	.	.
8GG'\L 8G	8dd/L)	.	8dd\	Pod-
8BB'\ 8G	8d'/ 8dd	.	8dd\	-ko-
8GG'\J 8B	8g'/J 8dd	.	8dd\	-mo-
=67	=67	=67	=67	=67
8C'\L	(4e^/	.	4e/	-rze-
8E'\ 8G	.	.	.	.
8AA'\J 8E 8A	16f#/LL	.	16f#/LL	-mu
.	16g/JJ)	.	16g/JJ	.
!!linebreak:original
=68	=68	=68	=68	=68
8D'\L 8F#	8c'/L 8a	.	8a/	dał
8D'\ 8E	8c'/ 8g	.	8g/	do-
8D'\J 8F#	8c'/J 8a	.	8a/	-ku-
=69	=69	=69	=69	=69
*	*^	*	*	*
8G\L	(4b/	8B\L	.	4b/	-men-
8D\	.	8B\ 8d	.	.	.
8G\J	8g/)	8B\J	.	8g/	-ta.
*	*v	*v	*	*	*
=70	=70	=70	=70	=70
8BB'\L 8F#	8d'/L 8b	.	8b\	Wra-
8C#X'\ 8F#	8e'/ 8b	.	8b\	-ca-
8D'\J 8B	8f#'/J 8b	.	8b\	-my,
=71	=71	=71	=71	=71
*	*^	*	*	*
8E'\L 8B	4b/	(16g\LL	.	4b\	a
.	.	16a\	.	.	.
8D'\ 8B	.	16g\	.	.	.
.	.	16f#\J	.	.	.
8C#X'\J 8B	8b/	8e\J)	.	8b\	ten:
*	*v	*v	*	*	*
=72	=72	=72	=72	=72
8BB'\L 8F#	8d'/L 8b	.	8b\	"do
8C#X'\ 8F#	8e'/ 8b	.	8b\	mia-
8D'\J 8B	8f#'/J 8b	.	8b\	-sta
!!linebreak:original
=73	=73	=73	=73	=73
*	*^	*	*	*
8E'\L 8B	4b/	(16g\LL	.	4b\	skrę-
.	.	16a\	.	.	.
8D'\ 8B	.	16g\	.	.	.
.	.	16f#\J	.	.	.
8C#X'\J 8B	8b/	8e\J)	.	16b\	-cę"
.	.	.	.	16r	.
*	*v	*v	*	*	*
=74	=74	=74	=74	=74
8BB'\L 8G#X	8fn'/L 8dd	.	8dd^\	Po
8BB'\ 8G#	8f'/ 8cc	.	8d/	co?
8BB'\J 8G#	8f'/J 8b	.	8r	.
=75	=75	=75	=75	=75
.	8qb/	.	.	.
8C'\L 8A	8e'/L 8a	.	8a/	"bo
8C'\ 8E	8e'/ 8g#X	.	8g#X/	w mie-
8C'\J 8A	8e'/J 8a	.	8a/	-ście
=76	=76	=76	=76	=76
8C#X'\L 8G	8e'/L 8b-X	.	8b-X/	ład-
8C#'\ 8A	8e'/ 8a	.	8a/	-ne
8C#'\J 8B-X	8e'/J 8g	.	8g/	dziew-
=77	=77	=77	=77	=77
8D\L 8A	(>4d/ 4f#	.	16f#/LL	-czę-
.	.	.	16a/JJ	.
8F#\	.	.	8d/	-ta."
8A\J	8a/)	.	8r	.
!!pagebreak:original
=78	=78	=78	=78	=78
8qA/	8qa/	f	.	.
8d'\L	8dd'/L	.	4.r	.
8A'\	8a'/	>	.	.
8B-X'\J	8b-X'/J	.	.	.
=79	=79	=79	=79	=79
8G'\L	8g'/L	.	4.r	.
8A'\	8a'/	.	.	.
8F#'\J	8f#'/J	.	.	.
=80	=80	=80	=80	=80
8G'\L	8g'/L	.	4.r	.
8D'\	8d'/	.	.	.
8qFn/	8qfn/	]	.	.
8E-X^\J	8e-X^/J	.	.	.
=81	=81	=81	=81	=81
4.D;\	4.d;/	.	4.r	.
=82	=82	=82	=82	=82
8G'\L	8g'\L 8b 8gg	pp	8g/	J
8A'\	8g'\ 8cc 8ff#	.	8g/	o-
8B'\J	8g'\J 8dd 8ffn	.	8g/	-woż
=83	=83	=83	=83	=83
*	*^	*	*	*
8c'\L	(16ee/LL	8g\L	.	4g/	jed-
.	16ffn/	.	.	.	.
8d'\	16ee/	8g\	.	.	.
.	16dd/J	.	.	.	.
8e'\J	8cc#X/J)	8g\J	.	8g/	-ną
*	*v	*v	*	*	*
!!linebreak:original
=84	=84	=84	=84	=84
8fn'\L	8g'/L 8dd	.	8g/	uj-
8e'\	8g'/ 8cc#X	.	8g/	-rzał
8e-X'\J	8g'/J 8ccn	.	8g/	w koś-
=85	=85	=85	=85	=85
*	*^	*	*	*
8d'\L	(16b/LL	8g\L	.	4g/	-cie-
.	16cc/	.	.	.	.
8c#X'\	16b/	8g\	.	.	.
.	16b-X/J	.	.	.	.
8cn'\J	8a/J)	8g\J	.	8g/	-le,
*	*v	*v	*	*	*
=86	=86	=86	=86	=86
8BB'\L 8B	8d'/L 8dd	.	8dd\	więć
8B'\ 8d	8g'/ 8dd	.	8dd\	po
8BB'\J 8G	8d'/J 8dd	.	8dd\	mszy
=87	=87	=87	=87	=87
*^	*	*	*	*
4C/	8C\L	4e^/	.	16e/	za
.	.	.	.	16e/	nią!
.	8E\ 8G	.	.	8r	.
8rcyy	8AA\J	16f#/LL	.	8r	.
.	.	16g/JJ	.	.	.
*v	*v	*	*	*	*
!!linebreak:original
=88	=88	=88	=88	=88
8D\L 8F#	8c/L 8a	.	8a/	w tem
8D\ 8E	8c/ 8g	.	8g/	oś
8D\J 8F#	8c/J 8a	.	8a/	się
=89	=89	=89	=89	=89
8G\	(8B/L 8b	.	4b/	ła-
16D'/LL	8d/)	.	.	.
16C'/	.	.	.	.
16BB'/	8d'/J	.	8g/	-mie,
16AA'/JJ	.	.	.	.
=90	=90	=90	=90	=90
8GG'\L 8G	8B'/L 8g	.	8g/	przy
8BB'\ 8G	8d'/ 8g	.	8g/	jej
8GG'\J 8G	8B'/J 8g	.	8g/	ka-
=91	=91	=91	=91	=91
*	*^	*	*	*
8AA'\L 8G	(16g^/LL	4.c\ 4.e-X	.	4g/	-ro-
.	16a/	.	.	.	.
8C'\ 8G	16g/	.	.	.	.
.	16f#/J	.	.	.	.
8AA'\J 8G	8g/J)	.	.	8g/	-cy
*	*v	*v	*	*	*
=92	=92	=92	=92	=92
8AA#X\L 8G	8c#X'/L 8g	.	8g/	bry-
8C#X'\ 8G	8en'/ 8g	.	8g/	-ka
8AA#'\J 8G	8c#'/J 8g	.	8g/	się
!!linebreak:original
=93	=93	=93	=93	=93
*	*^	*	*	*
8BB'\L 8G	(16g^/LL	4.d\ 4.fn	.	4g/	ście-
.	16a/	.	.	.	.
8D'\ 8G	16g/	.	.	.	.
.	16f#X/J	.	.	.	.
8BB'\J 8G	8g/J)	.	.	8g/	-le,
*	*v	*v	*	*	*
=94	=94	=94	=94	=94
8C'\L 8G	8e'/L 8cc	.	8cc\	jam
8E'\ 8c	8g'/ 8cc	.	8cc\	nos
8C'\J 8c	8e'/J 8cc	.	8cc\	roz-
=95	=95	=95	=95	=95
*	*^	*	*	*
8D'\L 8c	(16cc^/LL	4.fn\ 4.a-X	.	4cc\	-dra-
.	16dd/	.	.	.	.
8Fn'\ 8c	16cc/	.	.	.	.
.	16b/J	.	.	.	.
8D'\J 8c	8cc/J)	.	.	8cc\	-pał,
=96	=96	=96	=96	=96	=96
8D#X'\L 8c	8cc'/L	8f#X\L	.	8cc\	on
8F#X'\ 8c	8cc'/	8a\	.	8cc\	zwich-
8D#'\J 8c	8cc'/J	8f#\J	.	8cc\	-nął
=97	=97	=97	=97	=97	=97
8E'\L 8c	(16cc^/LL	4.g\ 4.b-X	.	4cc\	ra-
.	16dd/	.	.	.	.
8G'\ 8c	16cc/	.	.	.	.
.	16bn/J	.	.	.	.
8E'\J 8c	8cc/J)	.	.	8cc\	-mie,
*	*v	*v	*	*	*
!!pagebreak:original
=98	=98	=98	=98	=98
8Fn'\L 8c	8a'\L 8ffn	<	8cc\	toż
8G'\ 8c	8b-X'\ 8ff	.	8b-X\	nas
8A'\J 8fn	8cc'\J 8ff	.	8cc\	za-
=99	=99	=99	=99	=99
*	*^	*	*	*
8B-X'\L 8fn	4ffn^/	(16dd\LL	.	8.dd\L	-bie-
.	.	16ee\	.	.	.
8A'\ 8f	.	16dd\	.	.	.
.	.	16cc\J	.	16cc\Jk	.
8G'\J 8f	8ff/	8b-X\J)	.	8b-X\	-ra
*	*v	*v	*	*	*
=100	=100	=100	=100	=100
8Fn'\L 8fn	8a'\L 8ffn	.	8a/	w dom
8G'\ 8f	8b-X'\ 8ff	.	8b-X\	Pan
8A'\J 8f	8cc'\J 8ff	.	8cc\	Ła-
=101	=101	=101	=101	=101
*	*^	*	*	*
8B-X'\L 8fn	4ffn/	(16dd\LL	.	8fn/	-go-
.	.	16ee\	.	.	.
8A'\ 8f	.	16dd\	.	8f/	-da,
.	.	16cc\J	.	.	.
8G'\J 8f	8ff/	8b-X\J)	.	8r	.
*	*v	*v	*	*	*
=102	=102	=102	=102	=102
8Fn\ 8c	8a\ 8ffn	.	4.r	.
!	!	!LO:HP:t=cre_scen_do:ext=ud:problem:dynamics with extention lines	!	!
8B-X'\L 8d	8fn'\L 8b-X 8ff	<	.	.
8F'\J 8c	8f'\J 8a 8ff	.	.	.
!!linebreak:original
=103	=103	=103	=103	=103
8B-X'\L 8d	8fn'\L 8b-X 8ffn	.	8fn/	Pan-
8Fn'\ 8c	8f'\ 8a 8ff	.	8f/	-na
8B-'\J 8d	8f'\J 8b- 8ff	.	8f/	przy
=104	=104	=104	=104	=104
8Fn\ 8c	8fn\ 8a 8ffn	.	4fn/	cho-
8D'\L 8d	8b-X'\L 8ff 8bb-X	.	.	.
8C'\J 8c	8cc'\J 8ff 8aa	.	8f/	-rym
=105	=105	=105	=105	=105
8BB-X'\L 8B-X	8dd'\L 8ffn 8ddd	.	8fn/	po
8AA'\ 8A	8cc'\ 8ff 8ccc	[	8f/	ca-
8GG'\J 8G	8ff'\J 8bb-X 8fffn	.	8f/	-łych
=106	=106	=106	=106	=106
8FFn/ 8C 8Fn	8ffn\ 8aa 8fffn	sf	8cc\	dniach,
8r	8r	.	8r	.
8r;	8r;	.	8r;	.
=107	=107	=107	=107	=107
.	(16qqcc/LL	p	.	.
.	16qqdd/JJ	.	.	.
8Fn'\L 8c	8a'\L) 8ee-X	.	8cc\	a
8F'\ 8d	8a'\ 8dd	.	8a/	za-
8F#X'\J 8e-X	8a'\J 8cc	.	8cc\	-kaz
!!linebreak:original
=108	=108	=108	=108	=108
.	8qcc/	.	.	.
*	*^	*	*	*
(4G\ 4d	(16b/LL	4g\	.	8.b\L	oj-
.	16a/	.	.	.	.
.	16b/	.	.	.	.
.	16cc/J	.	.	16cc\Jk	.
8B\)	8dd/J)	8g\	.	8dd\	-ca?
*	*v	*v	*	*	*
=109	=109	=109	=109	=109
8D'\L 8A	8d'/L 8f#	.	8f#/	ba!
8D'\ 8A	8c#X'/ 8f#	.	8f#/	krew
8D#X'\J 8A	8cn'/J 8f#	.	8f#/	nie
=110	=110	=110	=110	=110
.	8qa/	.	.	.
*	*^	*	*	*
((4E\ 4G	(16g/LL	4B\	.	8.g/L	wo-
.	16f#/	.	.	.	.
.	16g/	.	.	.	.
.	16a/J	.	.	16a/Jk	.
8G\)) 8B	8b/J)	8e\	.	8b/	-da!
*	*v	*v	*	*	*
=111	=111	=111	=111	=111
!	!	!	!LO:TX:a:i:t=lento	!
8A'\L	8e'/L 8cc	.	8cc\	oj
8B'\	8e'/ 8b	.	8b\	co
8c'\J	8e'/J 8a	.	8a/	ro
=112	=112	=112	=112	=112
*	*^	*	*	*
(4d\	(4g#X/	[4fn\	.	4g#X/	bę-
16D\)	16a/)	16f\]	.	16a/	-dzie!
16r;	16raa;	16rcyy	.	16r;	.
*	*v	*v	*	*	*
!!linebreak:original
=113	=113	=113	=113	=113
!	!	!	!LO:TX:a:B:t=Tempo I.	!
8D\ 8A	8d/ 8f#X 8dd	sf	8dd^\	po-
8r	8r	.	16cc\LL	-my-
.	.	.	16b\JJ	.
8DD/ 8D'	8A/ 8c 8f#	p	8a/	-śleć
=114	=114	=114	=114	=114
4GG;/ 4D	4B;/ 4g	.	4g;/	strach!
8r	8r	.	8r	.
=115	=115	=115	=115	=115
8g'\	8gg'\	p	4.r	.
(16B\LL	(16b\LL	.	.	.
16c\J	16cc\J	.	.	.
8d\J)	8dd\J)	.	.	.
=116	=116	=116	=116	=116
(16G\LL	(16g/LL	.	4.r	.
16A\J	16a/J	.	.	.
8B\J)	8b/J)	.	.	.
(16G\LL	(16g/LL	.	.	.
16E\JJ	16e/JJ	.	.	.
=117	=117	=117	=117	=117
8D\)	8d/)	.	4.r	.
8C'\L 8c	8ee'\L 8aa	f	.	.
8BB'\J 8B	8ee'\J 8gg#X 8bb	.	.	.
!!pagebreak:original
=118	=118	=118	=118	=118
8AA'\ 8A	8ee'\ 8aa 8ccc	.	4.r	.
8r	8r	.	.	.
8D\	8A/ 8d 8f#	p	.	.
=119	=119	=119	=119	=119
8GG'\L 8G	8B'/L 8g	.	8g/	Mój
8AA'\ 8G	8c'/ 8g	.	8g/	nos
8BB'\J 8G	8d'/J 8g	.	8g/	się
=120	=120	=120	=120	=120
*	*^	*	*	*
8C'\L 8G	(16g/LL	8e\L	.	4g/	zgo-
.	16a/	.	.	.	.
8BB'\ 8G	16g/	8d\	.	.	.
.	16f#/J	.	.	.	.
8AA'\J 8G	8g/J)	8c\J	.	8g/	-ił,
*	*v	*v	*	*	*
=121	=121	=121	=121	=121
8GG'\L 8G	8B'/L 8g	.	8g/	i
8AA'\ 8G	8c'/ 8g	.	8g/	on
8BB'\J 8G	8d'/J 8g	.	8g/	już
=122	=122	=122	=122	=122
*	*^	*	*	*
8C'\L 8G	(16g/LL	8e\L	.	4g/	zdro-
.	16a/	.	.	.	.
8BB'\ 8G	16g/	8d\	.	.	.
.	16f#/J	.	.	.	.
8AA'\J 8G	8g/J)	8c\J	.	8g/	-wy,
*	*v	*v	*	*	*
!!linebreak:original
=123	=123	=123	=123	=123
.	(8qB/	.	.	.
8GG'\L 8G	8dd/L)	.	8dd\	lecz
8BB'\ 8G	8d'/ 8dd	.	8dd\	wra-
8GG'\J 8B	8g'/J 8dd	.	8dd\	-cać
=124	=124	=124	=124	=124
8C'\L	(4e^/	.	4e/	do
8E'\ 8G	.	.	.	.
8AA'\J 8E 8A	16f#/LL	.	16f#/LL	dom
.	16g/JJ)	.	16g/JJ	.
=125	=125	=125	=125	=125
8D'\L 8F#	8c'/L 8a	.	8a/	a-
8D'\ 8E	8c'/ 8g	.	8g/	-ni
8D'\J 8F#	8c'/J 8a	.	8a/	mu
=126	=126	=126	=126	=126
*	*^	*	*	*
8G\L	(4b/	8B\L	.	4b\	w gło-
8D\	.	8B\ 8d	.	.	.
8G\J	8g/)	8B\J	.	8g/	-wie,
*	*v	*v	*	*	*
=127	=127	=127	=127	=127
8BB'\L 8F#	8d'/L 8b	.	8b\	mło-
8C#X'\ 8F#	8e'/ 8b	.	8b\	-kos
8D'\J 8B	8f#'/J 8b	.	8b\	nie
!!linebreak:original
=128	=128	=128	=128	=128
*	*^	*	*	*
8E'\L 8B	4b/	(16g\LL	.	4b\	słu-
.	.	16a\	.	.	.
8D'\ 8B	.	16g\	.	.	.
.	.	16f#\J	.	.	.
8C#X'\J 8B	8b/	8e\J)	.	8b\	-cha
*	*v	*v	*	*	*
=129	=129	=129	=129	=129
8BB'\L 8F#	8d'/L 8b	.	8b\	roz-
8C#X'\ 8F#	8e'/ 8b	.	8b\	-sąd-
8D'\J 8B	8f#'/J 8b	.	8b\	-nej
=130	=130	=130	=130	=130
*	*^	*	*	*
8E'\L 8B	4b/	(16g\LL	.	4b\	mo-
.	.	16a\	.	.	.
8D'\ 8B	.	16g\	.	.	.
.	.	16f#\J	.	.	.
8C#X'\J 8B	8b/	8e\J)	.	8b\	-wy
*	*v	*v	*	*	*
=131	=131	=131	=131	=131
8BB'\L 8G#X	8fn'/L 8dd	.	8dd\	je-
8BB'\ 8G#	8f'/ 8cc	.	8cc\	-śli
8BB'\J 8G#	8f'/J 8b	.	8b\	za-
=132	=132	=132	=132	=132
.	8qb/	.	.	.
8C'\L 8A	8e'/L 8a	.	8a/L	-gad-
8C'\ 8E	8e'/ 8g#X	.	8g#X/J	.
8C'\J 8A	8e'/J 8a	.	8a/	-nę
!!linebreak:original
=133	=133	=133	=133	=133
8C#X'\L 8G	8e'/L 8b-X	.	8b-X/	fig-
8C#'\ 8A	8e'/ 8a	.	8a/	-lem
8C#'\J 8B-X	8e'/J 8g	.	8g/	od-
=134	=134	=134	=134	=134
8D\L 8A	(>4d/ 4f#	.	8f#/	-po-
8F#\	.	.	8d/	-wie.
8A\J	8a/)	.	8r	.
=135	=135	=135	=135	=135
8qA/	8qa/	f	.	.
8d'\L	8dd'/L	.	4.r	.
8A'\	8a'/	>	.	.
8B-X'\J	8b-X'/J	.	.	.
=136	=136	=136	=136	=136
8G'\L	8g'/L	.	4.r	.
8A'\	8a'/	.	.	.
8F#'\J	8f#'/J	.	.	.
=137	=137	=137	=137	=137
8G'\L	8g'/L	.	4.r	.
8D'\	8d'/	.	.	.
8qFn/	8qfn/	]	.	.
8E-X^\J	8e-X^/J	.	.	.
=138	=138	=138	=138	=138
4.D;\	4.d;/	.	4.r;	.
!!pagebreak:original
=139	=139	=139	=139	=139
8G'\L	8g'\L 8b 8gg	pp	8g/	Tak
8A'\	8g'\ 8cc 8ff#	.	8g/	moś-
8B'\J	8g'\J 8dd 8ffn	.	8g/	-ci-
=140	=140	=140	=140	=140
*	*^	*	*	*
8c'\L	(16ee/LL	8g\L	.	4g/	-dzie-
.	16ffn/	.	.	.	.
8d'\	16ee/	8g\	.	.	.
.	16dd/J	.	.	.	.
8e'\J	8cc#X/J)	8g\J	.	8g/	-ju,
*	*v	*v	*	*	*
=141	=141	=141	=141	=141
8fn'\L	8g'/L 8dd	.	8g/	dzień
8e'\	8g'/ 8cc#X	.	8g/	po
8e-X'\J	8g'/J 8ccn	.	8g/	dniu
=142	=142	=142	=142	=142
*	*^	*	*	*
8d'\L	(16b/LL	8g\L	.	4g/	pły-
.	16cc/	.	.	.	.
8c#X'\	16b/	8g\	.	.	.
.	16b-X/J	.	.	.	.
8cn'\J	8a/J)	8g\J	.	8g/	-nie,
*	*v	*v	*	*	*
!!linebreak:original
=143	=143	=143	=143	=143
8BB'\L 8B	8d'/L 8dd	.	8dd\	o-
8B'\ 8d	8g'/ 8dd	.	8d/	-woż
8BB'\J 8G	8d'/J 8dd	.	8d/	zwa-
=144	=144	=144	=144	=144
*^	*	*	*	*
4C/	8C\L	4e^/	.	4e/	-żyw-
.	8E\ 8G	.	.	.	.
8rcyy	8AA\J	16f#/LL	.	16f#/LL	-szy
.	.	16g/JJ	.	16g/JJ	.
*v	*v	*	*	*	*
=145	=145	=145	=145	=145
8D\L 8F#	8c/L 8a	.	8a/	rzecz
8D\ 8E	8c/ 8g	.	8g/	jak
8D\J 8F#	8c/J 8a	.	8a/	naj-
=146	=146	=146	=146	=146
8G\	(8B/L 8b	.	4b\	-śći-
16D'/LL	8d/)	.	.	.
16C'/	.	.	.	.
16BB'/	8d'/J	.	8g/	-ślej
16AA'/JJ	.	.	.	.
!!linebreak:original
=147	=147	=147	=147	=147
8GG'\L 8G	8B'/L 8g	.	8g/	znać
8BB'\ 8G	8d'/ 8g	.	8g/	się
8GG'\J 8G	8B'/J 8g	.	8g/	za-
=148	=148	=148	=148	=148
*	*^	*	*	*
8AA'\L 8G	(16g^/LL	4.c\ 4.e-X	.	4g/	-ko-
.	16a/	.	.	.	.
8C'\ 8G	16g/	.	.	.	.
.	16f#/J	.	.	.	.
8AA'\J 8G	8g/J)	.	.	8g/	-chał
*	*v	*v	*	*	*
=149	=149	=149	=149	=149
8AA#X'\L 8G	8c#X'/L 8g	.	8g/	pa-
8C#X'\ 8G	8en'/ 8g	.	8g/	-nicz
8AA#'\J 8G	8c#'/J 8g	.	8g/	w dziew-
=150	=150	=150	=150	=150
*	*^	*	*	*
8BB'\L 8G	(16g^/LL	4.d\ 4.fn	.	4g/	-czy-
.	16a/	.	.	.	.
8D'\ 8G	16g/	.	.	.	.
.	16f#X/J	.	.	.	.
8BB'\J 8G	8g/J)	.	.	8g/	-nie,
*	*v	*v	*	*	*
!!linebreak:original
=151	=151	=151	=151	=151
8C'\L 8G	8e'/L 8cc	.	8cc\	znać
8E'\ 8c	8g'/ 8cc	.	8cc\	o
8C'\J 8c	8e'/J 8cc	.	8cc\	za-
=152	=152	=152	=152	=152
*	*^	*	*	*
8D'\L 8c	(16cc^/LL	4.fn\ 4.a-X	.	4cc\	-ka-
.	16dd/	.	.	.	.
8Fn'\ 8c	16cc/	.	.	.	.
.	16b/J	.	.	.	.
8D'\J 8c	8cc/J)	.	.	8cc\	-zie
=153	=153	=153	=153	=153	=153
8D#X'\L 8c	8cc'/L	8f#X\L	.	8cc\	oj-
8F#X'\ 8c	8cc'/	8a\	.	8cc\	-ca
8D#'\J 8c	8cc'/J	8f#\J	.	8cc\	nie
=154	=154	=154	=154	=154	=154
8E'\L 8c	(16cc^/LL	4.g\ 4.b-X	.	4cc\	my-
.	16dd/	.	.	.	.
8G'\ 8c	16cc/	.	.	.	.
.	16bn/J	.	.	.	.
8E'\J 8c	8cc/J)	.	.	8cc\	-śli,
*	*v	*v	*	*	*
=155	=155	=155	=155	=155
8Fn'\L 8c	8a'\L 8ffn	<	8cc\	cu-
8G'\ 8c	8b-X'\ 8ff	.	8b-X\	-da
8A'\J 8fn	8cc'\J 8ff	.	8cc\	wy-
!!pagebreak:original
=156	=156	=156	=156	=156
*	*^	*	*	*
8B-X'\L 8fn	4ffn^/	(16dd\LL	.	8.dd\L	-pra-
.	.	16ee\	.	.	.
8A'\ 8f	.	16dd\	.	.	.
.	.	16cc\J	.	16cc\Jk	.
8G'\J 8f	8ff/	8b-X\J)	.	8b-X\	-wia
*	*v	*v	*	*	*
=157	=157	=157	=157	=157
8Fn'\L 8fn	8a'\L 8ffn	.	8a/	na
8G'\ 8f	8b-X'\ 8ff	.	8b-X\	i-
8A'\J 8f	8cc'\J 8ff	.	8cc\	-mie-
=158	=158	=158	=158	=158
*	*^	*	*	*
8B-X'\L 8fn	4ffn^/	(16dd\LL	.	8fn/	-ni-
.	.	16ee\	.	.	.
8A'\ 8f	.	16dd\	.	8f/	-ny!
.	.	16cc\J	.	.	.
8G'\J 8f	8ff/	8b-X\J)	.	8r	.
*	*v	*v	*	*	*
=159	=159	=159	=159	=159
8Fn\ 8c	8a\ 8ffn	.	4.r	.
!	!	!LO:HP:t=cre_scen_do:ext=ud:problem:dynamics with extention lines	!	!
8B-X'\L 8d	8fn'\L 8b-X 8ff	<	.	.
8F'\J 8c	8f'\J 8b- 8ff	.	.	.
=160	=160	=160	=160	=160
8B-X'\L 8d	8fn'\L 8b-X 8ffn	.	8fn/	i
8Fn'\ 8c	8f'\ 8a 8ff	.	8.b-X/	ja
8B-'\J 8d	8f'\J 8b- 8ff	.	.	.
.	.	.	16f/	po-
!!linebreak:original
=161	=161	=161	=161	=161
8Fn\ 8c	8fn\ 8a 8ffn	.	4fn/	-ma-
8D'\L 8d	8b-X\L 8ff 8bb-X	.	.	.
8C'\J 8c	8cc\J 8ff 8aa	.	8f/	-gam
=162	=162	=162	=162	=162
8BB-X'\L 8B-X	8dd'\L 8ffn 8ddd	.	8fn/	jak
8AA'\ 8A	8cc'\ 8ff 8ccc	[	8f/	dru-
8GG'\J 8G	8ff'\J 8bb-X 8fffn	.	8f/	-gi
=163	=163	=163	=163	=163
8FFn/ 8C 8Fn	8ffn\ 8aa 8fffn	sf	4cc\	gach!
8r	8r	.	.	.
8r;	8r;	.	8r;	.
=164	=164	=164	=164	=164
.	(16qqcc/LL	p	.	.
.	16qqdd/JJ	.	.	.
8Fn'\L 8c	8a'\L) 8ee-X	.	8cc\	oj
8F'\ 8d	8a'\ 8dd	.	8a/	zjem
8F#X'\J 8e-X	8a'\J 8cc	.	8cc\	też
=165	=165	=165	=165	=165
.	8qcc/	.	.	.
*	*^	*	*	*
(4G\ 4d	(16b/LL	4g\	.	8.b\L	dja-
.	16a/	.	.	.	.
.	16b/	.	.	.	.
.	16cc/J	.	.	16cc\Jk	.
8B\)	8dd/J)	8g\	.	8dd\	-bła
*	*v	*v	*	*	*
!!linebreak:original
=166	=166	=166	=166	=166
8D'\L 8A	8d'/L 8f#	.	8f#/	z je-
8D'\ 8A	8c#X'/ 8f#	.	8f#/	-go
8D#X'\J 8A	8cn'/J 8f#	.	8f#/	przy-
=167	=167	=167	=167	=167
.	8qa/	.	.	.
*	*^	*	*	*
((4E\ 4G	(16g/LL	4B\	.	8.g/L	-czy-
.	16f#/	.	.	.	.
.	16g/	.	.	.	.
.	16a/J	.	.	16a/Jk	.
8G\)) 8B	8b/J)	8e\	.	8b/	-ny,
*	*v	*v	*	*	*
=168	=168	=168	=168	=168
!	!	!	!LO:TX:a:i:t=lento	!
8A'\L	8e'/L 8cc	.	8cc\	oj
8B'\	8e'/ 8b	.	8b\	co
8c'\J	8e'/J 8a	.	8a/	to
=169	=169	=169	=169	=169
*	*^	*	*	*
(4d\	(4g#X/	[4fn\	.	4g#X/	bę-
16D\)	16a/)	16f\]	.	16a/	-dzie!
16r;	16raa;	16rcyy	.	16r;	.
*	*v	*v	*	*	*
=170	=170	=170	=170	=170
!	!	!	!LO:TX:a:B:t=Tempo I.	!
8D\ 8A	8d/ 8f#X 8dd	sf	8dd^\	po-
8r	8r	.	16cc\LL	-my-
.	.	.	16b\JJ	.
8DD/ 8D	8A/ 8c 8f#	p	8a/	-śleć
!!linebreak:original
=171	=171	=171	=171	=171
4GG;/ 4D	4B;/ 4g	.	4g;/	strach!
8r	8r	.	8r	.
=172	=172	=172	=172	=172
8g'\	8gg'\	p	4.r	.
(16B\LL	(16b\LL	.	.	.
16c\J	16cc\J	.	.	.
8d\J)	8dd\J)	.	.	.
=173	=173	=173	=173	=173
(16G\LL	(16g/LL	.	4.r	.
16B\J	16b/J	.	.	.
8D'\J)	8d'/J)	.	.	.
(16BB/LL	(16B/LL	.	.	.
16D/JJ	16d/JJ	.	.	.
=174	=174	=174	=174	=174
8GG/)'	8G/)'	.	4.r	.
8r	8r	.	.	.
8r	8r	.	.	.
=175	=175	=175	=175	=175
8GGG/ 8DD 8GG	8g\ 8b 8dd 8gg	sff	4.r	.
8r	8r	.	.	.
8r	8r	.	.	.
==	==	==	==	==
*-	*-	*-	*-	*-
!!!system-decoration: s1{(s2,s3)}
!!!RDF**kern: > = above
!!!RDF**kern: < = below
!!!ENC: Solarz Mateusz
!!!END: 2022-09-26
!!!ENC: Krzysztof Stępień
!!!END: 2022-10-31
!!!YEC: Copyright 2022 Narodowy Instytut Fryderyka Chopina (https://polishscores.org)
!!!YEM: License CC-BY-4.0 (https://creativecommons.org/licenses/by/4.0)
